src/icons/svg/icon-device_add.svg

<?xml version="1.0" standalone="no"?><!DOCTYPE svg PUBLIC "-//W3C//DTD SVG 1.1//EN" "http://www.w3.org/Graphics/SVG/1.1/DTD/svg11.dtd"><svg t="1647918350885" class="icon" viewBox="0 0 1024 1024" version="1.1" xmlns="http://www.w3.org/2000/svg" p-id="8717" xmlns:xlink="http://www.w3.org/1999/xlink" width="200" height="200"><defs><style type="text/css">@font-face { font-family: feedback-iconfont; src: url("//at.alicdn.com/t/font_1031158_u69w8yhxdu.woff2?t=1630033759944") format("woff2"), url("//at.alicdn.com/t/font_1031158_u69w8yhxdu.woff?t=1630033759944") format("woff"), url("//at.alicdn.com/t/font_1031158_u69w8yhxdu.ttf?t=1630033759944") format("truetype"); }
</style></defs><path d="M512.085191 1023.998862a315.647211 315.647211 0 0 1-224.625216-93.013101L93.014239 736.56847A315.4481 315.4481 0 0 1 0.001138 512.000142a315.4481 315.4481 0 0 1 93.013101-224.568327l194.445736-194.417292A315.561878 315.561878 0 0 1 512.085191 0.001422a315.4481 315.4481 0 0 1 224.568327 93.013101l194.445736 194.417292c123.875246 123.818357 123.875246 325.318298 0 449.136655l-194.445736 194.388847A315.476545 315.476545 0 0 1 512.085191 1023.998862z m0-938.66432a230.882978 230.882978 0 0 0-164.266256 68.010497l-194.445736 194.417292A230.797645 230.797645 0 0 0 85.334258 512.000142a230.683868 230.683868 0 0 0 68.038941 164.209367l194.445736 194.417292A230.854534 230.854534 0 0 0 512.085191 938.665742c62.037178 0 120.376588-24.177717 164.237812-68.010496l194.445736-194.417292c90.53844-90.566885 90.53844-237.908739 0-328.475623l-194.445736-194.388848A230.683868 230.683868 0 0 0 512.085191 85.334542z" p-id="8718"></path><path d="M668.443911 455.111396H540.444231v-127.99968a42.66656 42.66656 0 1 0-85.33312 0V455.111396h-127.99968a42.66656 42.66656 0 0 0 0 85.33312H455.111111v127.99968a42.66656 42.66656 0 1 0 85.33312 0V540.444516h127.99968a42.66656 42.66656 0 0 0 0-85.33312z" p-id="8719"></path></svg>

<svg class="icon" viewBox="0 0 1024 1024" xmlns="http://www.w3.org/2000/svg" width="200" height="200"><defs><style>@font-face{font-family:feedback-iconfont;src:url(//at.alicdn.com/t/font_1031158_u69w8yhxdu.woff2?t=1630033759944) format(&quot;woff2&quot;),url(//at.alicdn.com/t/font_1031158_u69w8yhxdu.woff?t=1630033759944) format(&quot;woff&quot;),url(//at.alicdn.com/t/font_1031158_u69w8yhxdu.ttf?t=1630033759944) format(&quot;truetype&quot;)}</style></defs><path d="M512.085 1023.999a315.647 315.647 0 0 1-224.625-93.013L93.014 736.568A315.448 315.448 0 0 1 .001 512a315.448 315.448 0 0 1 93.013-224.568L287.46 93.015A315.562 315.562 0 0 1 512.085 0a315.448 315.448 0 0 1 224.569 93.014l194.445 194.417c123.876 123.818 123.876 325.318 0 449.136l-194.445 194.39a315.477 315.477 0 0 1-224.569 93.04zm0-938.664a230.883 230.883 0 0 0-164.266 68.01L153.373 347.762A230.798 230.798 0 0 0 85.334 512a230.684 230.684 0 0 0 68.04 164.21l194.445 194.417a230.855 230.855 0 0 0 164.266 68.039c62.037 0 120.377-24.178 164.238-68.01l194.446-194.418c90.538-90.567 90.538-237.909 0-328.476L676.323 153.373a230.684 230.684 0 0 0-164.238-68.038z"/><path d="M668.444 455.111h-128v-128a42.667 42.667 0 1 0-85.333 0v128h-128a42.667 42.667 0 0 0 0 85.334h128v128a42.667 42.667 0 1 0 85.333 0v-128h128a42.667 42.667 0 0 0 0-85.334z"/></svg>
